public/images/header-new-whatsapp.svg

<svg width="20" height="20" viewBox="0 0 20 20" fill="none" xmlns="http://www.w3.org/2000/svg">
<g id="Frame 1967">
<path id="Subtract" fill-rule="evenodd" clip-rule="evenodd" d="M0.00266246 10.0015C0.00149127 4.47899 4.47506 0.0011766 9.99464 4.80985e-06C11.8658 -0.001831 13.6998 0.521883 15.288 1.51158C19.9732 4.43106 21.4058 10.5979 18.4879 15.2855C15.5699 19.9732 9.40628 21.4066 4.72108 18.4871L0.556866 19.9745C0.51201 19.9907 0.464655 19.9989 0.416949 19.9987C0.365534 19.9987 0.314587 19.9892 0.266608 19.9707C0.0520473 19.8879 -0.0547645 19.6467 0.0280381 19.432L1.58294 15.3956C0.551517 13.7857 0.00305285 11.9137 0.00266246 10.0015ZM13.1008 10.8702C13.7396 11.2035 14.7599 11.7035 14.7599 11.7035C14.9023 11.7737 14.9924 11.9188 14.9923 12.0777V12.9109C14.7828 14.1244 13.7245 15.0068 12.4937 14.9941C11.1854 14.9941 8.67355 13.4292 7.61831 12.3726C6.56308 11.316 4.99818 8.80285 4.99818 7.49462C4.98553 6.26322 5.86739 5.20439 7.08027 4.99479H7.9131C8.07023 4.99495 8.21386 5.08358 8.28456 5.22396C8.28456 5.22478 8.7884 6.24471 9.11738 6.88466C9.48799 7.60793 8.79258 8.45705 8.39613 8.85785C8.63505 9.48042 8.99578 10.049 9.45718 10.5302C9.93827 10.9918 10.5065 11.3527 11.1287 11.5918C11.5285 11.1952 12.378 10.4977 13.1008 10.8702Z" fill="#0DB25A"/>
</g>
</svg>

<svg width="20" height="20" fill="none" xmlns="http://www.w3.org/2000/svg"><path fill-rule="evenodd" clip-rule="evenodd" d="M.003 10.002C0 4.479 4.475.002 9.995 0a9.99 9.99 0 015.293 1.512c4.685 2.92 6.118 9.086 3.2 13.774-2.918 4.687-9.082 6.12-13.767 3.201L.557 19.975a.407.407 0 01-.29-.004.417.417 0 01-.239-.539l1.555-4.036A10.003 10.003 0 01.003 10zm13.098.868c.639.334 1.659.834 1.659.834.142.07.232.215.232.374v.833a2.51 2.51 0 01-2.498 2.083c-1.309 0-3.82-1.565-4.876-2.621-1.055-1.057-2.62-3.57-2.62-4.878a2.51 2.51 0 012.082-2.5h.833c.157 0 .3.089.372.229 0 0 .503 1.02.832 1.66.371.724-.324 1.573-.72 1.974a5.01 5.01 0 001.06 1.672 5.01 5.01 0 001.672 1.062c.4-.397 1.249-1.094 1.972-.722z" fill="#0DB25A"/></svg>
